X:183
T:Solus Lillis' Reel  
B:CRE1.165 (Ril Sholais Ui Laighleis)
F:file ID: cre.1/183solus
S:Michael Tubridy
M:C
L:1/8
Q:180
R:reel
K:C
c2Gc AcGc|c2ec gcec|c2Gc AcG2|eaag edd2|
c2Gc AcGc|c2ec gcec|c2Gc AcG2|eaag edd2||
edd2 edcd|edd2 eaag|edd2 edcA|cBcd eaag|
edd2 edcd|edd2 eaag|edd2 edcA|c2cd eaag||

%%%

